imgs/paper.svg

<?xml version="1.0"?>
<svg width="512" height="512" xmlns="http://www.w3.org/2000/svg" xmlns:svg="http://www.w3.org/2000/svg">
 <!--!Font Awesome Free 6.5.2 by @fontawesome - https://fontawesome.com License - https://fontawesome.com/license/free Copyright 2024 Fonticons, Inc.-->
 <g class="layer">
  <title>Layer 1</title>
  <path d="m256,0c-25.3,0 -47.2,14.7 -57.6,36c-7,-2.6 -14.5,-4 -22.4,-4c-35.3,0 -64,28.7 -64,64l0,165.5l-2.7,-2.7c-25,-25 -65.5,-25 -90.5,0s-25,65.5 0,90.5l87.7,87.7c48,48 113.1,75 181,75l8.5,0l8,0c1.5,0 3,-0.1 4.5,-0.4c91.7,-6.2 165,-79.4 171.1,-171.1c0.3,-1.5 0.4,-3 0.4,-4.5l0,-176c0,-35.3 -28.7,-64 -64,-64c-5.5,0 -10.9,0.7 -16,2l0,-2c0,-35.3 -28.7,-64 -64,-64c-7.9,0 -15.4,1.4 -22.4,4c-10.4,-21.3 -32.3,-36 -57.6,-36zm-16,96.1c0,0 0,-0.1 0,-0.1l0,-32c0,-8.8 7.2,-16 16,-16s16,7.2 16,16l0,31.9c0,0 0,0.1 0,0.1l0,136c0,13.3 10.7,24 24,24s24,-10.7 24,-24l0,-136c0,0 0,0 0,-0.1c0,-8.8 7.2,-16 16,-16s16,7.2 16,16l0,55.9c0,0 0,0.1 0,0.1l0,80c0,13.3 10.7,24 24,24s24,-10.7 24,-24l0,-71.8c0,0 0,-0.1 0,-0.1c0,-8.8 7.2,-16 16,-16s16,7.2 16,16l0,172.9c-0.1,0.6 -0.1,1.3 -0.2,1.9c-3.4,69.7 -59.3,125.6 -129,129c-0.6,0 -1.3,0.1 -1.9,0.2l-4.9,0l-8.5,0c-55.2,0 -108.1,-21.9 -147.1,-60.9l-87.7,-87.8c-6.2,-6.2 -6.2,-16.4 0,-22.6s16.4,-6.2 22.6,0l43.7,43.7c6.9,6.9 17.2,8.9 26.2,5.2s14.8,-12.5 14.8,-22.2l0,-223.4c0,-8.8 7.2,-16 16,-16c8.8,0 16,7.1 16,15.9l0,136.1c0,13.3 10.7,24 24,24s24,-10.7 24,-24l0,-135.9z" fill="#7d2ae8" id="svg_1"/>
 </g>
</svg>

<svg xmlns="http://www.w3.org/2000/svg" viewBox="0 0 512 512"><!--!Font Awesome Free 6.5.2 by @fontawesome - https://fontawesome.com License - https://fontawesome.com/license/free Copyright 2024 Fonticons, Inc.--><path d="M256 0c-25.3 0-47.2 14.7-57.6 36c-7-2.6-14.5-4-22.4-4c-35.3 0-64 28.7-64 64V261.5l-2.7-2.7c-25-25-65.5-25-90.5 0s-25 65.5 0 90.5L106.5 437c48 48 113.1 75 181 75H296h8c1.5 0 3-.1 4.5-.4c91.7-6.2 165-79.4 171.1-171.1c.3-1.5 .4-3 .4-4.5V160c0-35.3-28.7-64-64-64c-5.5 0-10.9 .7-16 2V96c0-35.3-28.7-64-64-64c-7.9 0-15.4 1.4-22.4 4C303.2 14.7 281.3 0 256 0zM240 96.1c0 0 0-.1 0-.1V64c0-8.8 7.2-16 16-16s16 7.2 16 16V95.9c0 0 0 .1 0 .1V232c0 13.3 10.7 24 24 24s24-10.7 24-24V96c0 0 0 0 0-.1c0-8.8 7.2-16 16-16s16 7.2 16 16v55.9c0 0 0 .1 0 .1v80c0 13.3 10.7 24 24 24s24-10.7 24-24V160.1c0 0 0-.1 0-.1c0-8.8 7.2-16 16-16s16 7.2 16 16V332.9c-.1 .6-.1 1.3-.2 1.9c-3.4 69.7-59.3 125.6-129 129c-.6 0-1.3 .1-1.9 .2H296h-8.5c-55.2 0-108.1-21.9-147.1-60.9L52.7 315.3c-6.2-6.2-6.2-16.4 0-22.6s16.4-6.2 22.6 0L119 336.4c6.9 6.9 17.2 8.9 26.2 5.2s14.8-12.5 14.8-22.2V96c0-8.8 7.2-16 16-16c8.8 0 16 7.1 16 15.9V232c0 13.3 10.7 24 24 24s24-10.7 24-24V96.1z"/></svg>
